X: 119
T: Człowiek ja nieszczęśliwy, człowiek strapiony,
C: Mikołaj Gomółka
%%abc-version 2.0
%%abcx-abcm2ps-target-version 5.9.1 (29 Sep 2008)
%%abc-creator hum2abc beta
%%abcx-conversion-date 2021/10/04 07:59:10
%%abc-edited-by Marta Lawrence
%%abcx-initial-encoding-date 2020-02-19
%%humdrum-veritas 2997295285
%%humdrum-veritas-data 2150805468
%%linebreak <none>
%%barnumbers 0
L: 1/4
M: C|
N: Derived from pl-wn--sd-xvi-qu-273--121_gomolka-mikolaj--czlowiek-ja-nieszczesliwy-czlowiek-strapiony.krn
%%staves [1 2 3 4]
V: 1
V: 2 clef=alto
V: 3 clef=alto
V: 4 clef=bass
K: C
[V:1] E4c2A4 [|] 
[V:2] ^C4E2F4 [|] 
[V:3] A,4A,2C4 [|] 
[V:4] A,,4A,,2F,4 [|] 
[V:1] A2E2F2 [|] 
[V:2] F2E2D2 [|] 
[V:3] F,2A,2A,2 [|] 
[V:4] D,2^C,2D,2 [|] 
[V:1] E2c2c4 [|] 
[V:2] ^C2A2A4 [|] 
[V:3] A,2C2F3E [|] 
[V:4] A,,2A,2F,4 [|] 
[V:1] _B4A4 [|] 
[V:2] G2>F2E4 [|] 
[V:3] DCD2^C4 [|] 
[V:4] G,4A,4 [|] 
[V:1] A2A4A3 [|] 
[V:2] ^F2D2E2F4 [|] 
[V:3] D2F2E2D2 [|] 
[V:4] D,2D,2^C,2D,2 [|] 
[V:1] =Bc2d6 [|] 
[V:2] G2A2G=F [|] 
[V:3] D2B,2A,2D2 [|] 
[V:4] D,2E,2F,2G,2 [|] 
[V:1] ^cB=c2A2 [|] 
[V:2] GA2GA2F3 [|] 
[V:3] D4E2D2 [|] 
[V:4] B,4A,2D,2 [|] 
[V:1] A2A2F4 [|] 
[V:2] ED=CD4 [|] 
[V:3] =CB,A,G,A,4 [|] 
[V:4] F,2>E,2D,=C,D,2 [|] 
[V:1] E2A2d2d2 [|] 
[V:2] ^C2E2A2GF [|] 
[V:3] A,2C2A,2B,2 [|] 
[V:4] A,,2A,2F,2G,2 [|] 
[V:1] ^c2A2F2G2 [|] 
[V:2] E2F2D2D2 [|] 
[V:3] ^C2D2A,2B,2 [|] 
[V:4] A,2D,2D,2B,,2 [|] 
[V:1] A2_B2G2G2 [|] 
[V:2] EFG2=C3C [|] 
[V:3] ^C2D2G,3G, [|] 
[V:4] A,,2G,,2_E,3E, [|] 
[V:1] ^F2A2A2A2 [|] 
[V:2] D2F2F2F2 [|] 
[V:3] A,2D2D2D2 [|] 
[V:4] D,2D,2D,2D,2 [|] 
[V:1] =c2c2=B4 [|] 
[V:2] E2E2E3D [|] 
[V:3] =C2A,2B,2E3 [|] 
[V:4] A,,2A,4G,2 [|] 
[V:1] A2E2G2G2 [|] 
[V:2] ^C2A,2D2D2 [|] 
[V:3] DC2B,2B,2 [|] 
[V:4] A,2A,,2G,,2G,,2 [|] 
[V:1] =F4E32 |]  
[V:2] D4^C32 |]  
[V:3] A,4A,32 |]  
[V:4] D,4A,,32 |]  


